vendor/shopware/storefront/Resources/app/storefront/dist/assets/icon/solid/plus-large.svg

<svg xmlns="http://www.w3.org/2000/svg" width="16" height="16" viewBox="0 0 16 16">
  <path fill="#758CA3" fill-rule="evenodd" d="M7,7 L7,2 C7,1.44771525 7.44771525,1 8,1 C8.55228475,1 9,1.44771525 9,2 L9,7 L14,7 C14.5522847,7 15,7.44771525 15,8 C15,8.55228475 14.5522847,9 14,9 L9,9 L9,14 C9,14.5522847 8.55228475,15 8,15 C7.44771525,15 7,14.5522847 7,14 L7,9 L2,9 C1.44771525,9 1,8.55228475 1,8 C1,7.44771525 1.44771525,7 2,7 L7,7 Z"/>
</svg>

<svg xmlns="http://www.w3.org/2000/svg" width="16" height="16" viewBox="0 0 16 16"><path fill="#758CA3" fill-rule="evenodd" d="M7 7V2c0-.5523.4477-1 1-1s1 .4477 1 1v5h5c.5523 0 1 .4477 1 1s-.4477 1-1 1H9v5c0 .5523-.4477 1-1 1s-1-.4477-1-1V9H2c-.5523 0-1-.4477-1-1s.4477-1 1-1h5z"/></svg>
